X: 1
T: Jan's Tune [A]
C: Len Katz (1991)
N: "Written for my wife on our 25th wedding anniversary in 1991."
F: http://www.banjoaddiction.com/songs/JannsTune.mp3
R: reel
Z: 2007 John Chambers <jc@trillian.mit.edu>
M: 2/4
L: 1/16
K: A
[| "A"c2e2 fee2 | fee2 fee2  |  c2e2  fee2 |     ecA2 "E7"B4 \
|  "A"c2e2 fee2 | fee2 fee2  |  c2e2  e2f2 | "E7"ecB2  "A"A4 ||
|| "A"c2e2 fee2 | fee2 fee2  |  c2e2  e2f2 |     ecA2 "E7"B4 \
|  "A"c2e2 fee2 | fee2 e2f2  |  a4    e2f2 | "E7"ecB2  "A"A4 |]
|: "A"E4   E2F2 | A4   A4    | [c4A2] A2B2 |     c4       c4 \
|  "A"E4   E2F2 | A4   A2e2  |  a2f2  e2f2 | "E7"ecB2  "A"A4 :|
